assets/icons/graphic-tablet.svg

<?xml version="1.0" encoding="UTF-8" standalone="no"?>
<svg viewBox="0 0 24 24" height="24" width="24" version="1.1" id="svg8" sodipodi:docname="tablet.svg" inkscape:version="1.1 (ce6663b3b7, 2021-05-25)"
   xmlns:inkscape="http://www.inkscape.org/namespaces/inkscape"
   xmlns:sodipodi="http://sodipodi.sourceforge.net/DTD/sodipodi-0.dtd"
   xmlns="http://www.w3.org/2000/svg"
   xmlns:svg="http://www.w3.org/2000/svg">
   <defs id="defs12" />
   <sodipodi:namedview id="namedview10" pagecolor="#ffffff" bordercolor="#666666" borderopacity="1.0" inkscape:pageshadow="2" inkscape:pageopacity="0.0" inkscape:pagecheckerboard="0" showgrid="true" inkscape:zoom="14" inkscape:cx="2.3214286" inkscape:cy="0.35714285" inkscape:window-width="1920" inkscape:window-height="1043" inkscape:window-x="1920" inkscape:window-y="0" inkscape:window-maximized="1" inkscape:current-layer="svg8">
      <inkscape:grid type="xygrid" id="grid829" />
      <inkscape:grid type="xygrid" id="grid824" dotted="true" spacingx="0.5" spacingy="0.5" empspacing="10" />
   </sodipodi:namedview>
   <path id="path4" style="font-weight:400;line-height:125%;-inkscape-font-specification:Ubuntu;text-align:center;fill:#808080;stroke-width:0.8;fill-opacity:1" d="m 16.546875,2.0000006 -0.441407,0.4492188 -8.7109371,8.8691406 -0.037109,0.05664 c -0.07625,0.12375 -0.3372657,0.561875 -0.7285157,1.359375 -0.3925,0.7975 -0.8756249,1.887734 -1.265625,3.115234 l -0.3632812,1.150391 1.1503906,-0.363282 a 22.70375,22.70375 0 0 0 3.1152344,-1.265625 c 0.7975,-0.39125 1.233125,-0.650468 1.359375,-0.730468 l 0.05664,-0.03516 9.318359,-9.1542965 z m -7.9335941,9.8613284 1.5234381,1.52539 -0.2226568,0.21875 c 0.00875,-0.0062 -0.4736719,0.283828 -1.2011719,0.642579 -0.2675,0.131249 -0.6685156,0.276874 -1.0410156,0.421874 l -0.34375,-0.341796 c 0.145,-0.3725 0.2925781,-0.775469 0.4238281,-1.042969 0.35875,-0.7275 0.6475782,-1.206719 0.6425781,-1.199219 z" />
   <path id="path859" style="color:#000000;fill:#808080;-inkscape-stroke:none;fill-opacity:1" d="M 6.5 4 C 5.0000015 4 3.890652 3.946853 3.0625 4.609375 C 2.648424 4.9406358 2.3762836 5.4362717 2.21875 6.0664062 C 2.0612164 6.6965408 2 7.4791677 2 8.5 L 2 17.5 C 2 18.277777 2.059782 18.886376 2.2285156 19.392578 C 2.3972496 19.89878 2.7038064 20.306659 3.1171875 20.554688 C 3.9439497 21.050746 5.0000015 21 6.5 21 L 17.5 21 C 18.999998 21 20.05605 21.05074 20.882812 20.554688 C 21.296194 20.306659 21.60275 19.89878 21.771484 19.392578 C 21.940218 18.886376 22 18.277777 22 17.5 L 22 8.5 C 22 7.4791677 21.93878 6.6965409 21.78125 6.0664062 C 21.71486 5.8008486 21.626722 5.5612498 21.517578 5.3457031 L 20.748047 6.1015625 C 20.769661 6.1682898 20.792975 6.2304952 20.8125 6.3085938 C 20.936216 6.803458 21 7.5208343 21 8.5 L 21 17.5 C 21 18.222221 20.93478 18.738625 20.822266 19.076172 C 20.70975 19.413719 20.578806 19.568342 20.367188 19.695312 C 19.943952 19.949254 18.999999 20 17.5 20 L 6.5 20 C 5.0000015 20 4.056049 19.94925 3.6328125 19.695312 C 3.4211942 19.568342 3.2902501 19.413719 3.1777344 19.076172 C 3.0652186 18.738625 3 18.222221 3 17.5 L 3 8.5 C 3 7.5208343 3.063784 6.8034581 3.1875 6.3085938 C 3.3112161 5.8137295 3.4765766 5.5593637 3.6875 5.390625 C 4.1093467 5.0531476 5.0000015 5 6.5 5 L 12.197266 5 L 13.179688 4 L 6.5 4 z " />
   <path style="color:#000000;fill:#808080;-inkscape-stroke:none;fill-opacity:1" d="m 18,11 v 6 h -10 v 1 h 11 v -7 z" id="path1581" />
</svg>

<svg height="24" width="24" xmlns="http://www.w3.org/2000/svg"><path style="font-weight:400;line-height:125%;-inkscape-font-specification:Ubuntu;text-align:center;fill:gray;stroke-width:.8;fill-opacity:1" d="m16.547 2-.442.45-8.71 8.868-.038.057c-.076.124-.337.562-.728 1.36a22.808 22.808 0 0 0-1.266 3.115L5 17l1.15-.363a22.704 22.704 0 0 0 3.116-1.266 15.88 15.88 0 0 0 1.359-.73l.057-.036L20 5.451zm-7.934 9.861 1.524 1.526-.223.218c.009-.006-.474.284-1.201.643-.268.131-.669.277-1.041.422l-.344-.342c.145-.372.293-.775.424-1.043.359-.727.648-1.207.643-1.2z"/><path style="color:#000;fill:gray;-inkscape-stroke:none;fill-opacity:1" d="M6.5 4c-1.5 0-2.61-.053-3.438.61-.414.33-.686.826-.843 1.456C2.06 6.696 2 7.48 2 8.5v9c0 .778.06 1.386.229 1.893.168.506.475.914.888 1.162C3.944 21.05 5 21 6.5 21h11c1.5 0 2.556.05 3.383-.445.413-.248.72-.656.888-1.162.17-.507.229-1.115.229-1.893v-9c0-1.02-.061-1.803-.219-2.434a3.431 3.431 0 0 0-.263-.72l-.77.756c.022.066.045.128.064.207.124.494.188 1.212.188 2.191v9c0 .722-.065 1.239-.178 1.576-.112.338-.243.492-.455.62C19.944 19.948 19 20 17.5 20h-11c-1.5 0-2.444-.05-2.867-.305-.212-.127-.343-.281-.455-.619C3.065 18.74 3 18.222 3 17.5v-9c0-.98.064-1.697.188-2.191.123-.495.289-.75.5-.918C4.109 5.053 5 5 6.5 5h5.697l.983-1H6.5z"/><path style="color:#000;fill:gray;-inkscape-stroke:none;fill-opacity:1" d="M18 11v6H8v1h11v-7z"/></svg>
